X:11
T:Lady Holderness's Jigg
M:6/8
L:1/8
B:Thompson's Compleat Collection of 200 Favourite Country Dances, vol. 1 (London, 1757)
Z:Transcribed and edited by Fynnian Titford-Mock, 2007
Z:abc's:AK/Fiddler's Companion
K:A
aed cBA|eBA GFE|FAd cea|dec B3|aed cBA|eBA GFE|FAd cea|gaf e3:|
|:bge dcB|cBA cBA|eBG EGB|d2e cBA|a2e cBA|e2A GFE|FAd cBA|"tr"B3 A3:|

